icons/1_Primary/login.gov.svg

<svg width="1024" height="1024" fill="none" xmlns="http://www.w3.org/2000/svg"><g clip-path="url(#a)"><path d="M512 1024c282.77 0 512-229.23 512-512S794.77 0 512 0 0 229.23 0 512s229.23 512 512 512Z" fill="#73ADA4"/><path d="m458.15 617.7 18.8-107.3a56.94 56.94 0 0 1 35.2-101.9V289.4h-145.2a56.327 56.327 0 0 0-56.3 56.3v275.8a33.95 33.95 0 0 0 3.4 15c12.2 24.6 60.2 103.7 197.9 164.5V622.1a313.249 313.249 0 0 1-53.8-4.4ZM656.85 289h-144.9v119.1a56.858 56.858 0 0 1 54.99 72.614 56.854 56.854 0 0 1-19.29 28.786l18.8 107.8A320.561 320.561 0 0 1 512 622v178.6c137.5-60.5 185.7-139.9 197.9-164.5a33.95 33.95 0 0 0 3.4-15V345.5a56.008 56.008 0 0 0-16.4-40 56.762 56.762 0 0 0-40.05-16.5Z" fill="#fff"/></g><defs><clipPath id="a"><path fill="#fff" d="M0 0h1024v1024H0z"/></clipPath></defs></svg>

<svg width="1024" height="1024" viewBox="0 0 1024 1024" fill="none" xmlns="http://www.w3.org/2000/svg">
<g clip-path="url(#clip0_2_2700)">
<path d="M512 1024C794.77 1024 1024 794.77 1024 512C1024 229.23 794.77 0 512 0C229.23 0 0 229.23 0 512C0 794.77 229.23 1024 512 1024Z" fill="#73ADA4"/>
<path d="M458.15 617.7L476.95 510.4C467.562 503.104 460.693 493.053 457.306 481.655C453.92 470.258 454.187 458.086 458.069 446.848C461.951 435.61 469.254 425.869 478.953 418.992C488.652 412.114 500.26 408.445 512.15 408.5V289.4H366.95C352.021 289.408 337.705 295.342 327.149 305.899C316.592 316.455 310.658 330.771 310.65 345.7V621.5C310.621 626.694 311.784 631.826 314.05 636.5C326.25 661.1 374.25 740.2 511.95 801V622.1C493.923 622.184 475.923 620.712 458.15 617.7ZM656.85 289H511.95V408.1C523.782 408.026 535.342 411.644 545.02 418.452C554.697 425.259 562.01 434.916 565.94 446.076C569.869 457.237 570.219 469.345 566.94 480.714C563.662 492.083 556.919 502.145 547.65 509.5L566.45 617.3C548.467 620.414 530.251 621.986 512 622V800.6C649.5 740.1 697.7 660.7 709.9 636.1C712.166 631.426 713.329 626.294 713.3 621.1V345.5C713.353 338.079 711.931 330.721 709.116 323.854C706.3 316.987 702.148 310.748 696.9 305.5C686.256 294.922 671.856 288.99 656.85 289Z" fill="white"/>
</g>
<defs>
<clipPath id="clip0_2_2700">
<rect width="1024" height="1024" fill="white"/>
</clipPath>
</defs>
</svg>
